src/lib/packages/icons/src/assets/line/moon.svg

<svg width="24" height="24" viewBox="0 0 24 24" fill="none" xmlns="http://www.w3.org/2000/svg">
<path d="M12.115 21.749C11.635 21.749 11.15 21.715 10.661 21.645C6.27201 21.019 2.84302 17.54 2.32102 13.185C2.06102 11.015 2.51202 8.888 3.62702 7.034C5.40102 4.083 8.66 2.25 12.133 2.25C12.604 2.251 13.004 2.52901 13.163 2.95801C13.324 3.39101 13.201 3.866 12.85 4.168C11.272 5.526 10.566 7.56899 10.963 9.63199C11.423 12.03 13.397 13.863 15.873 14.194C17.37 14.393 18.811 14.058 20.032 13.22C20.415 12.959 20.907 12.961 21.284 13.226C21.66 13.489 21.829 13.946 21.716 14.389C20.593 18.779 16.605 21.748 12.115 21.749ZM11.085 3.81601C8.536 4.13701 6.23499 5.60501 4.91199 7.80701C3.97199 9.37201 3.59 11.17 3.81 13.006C4.251 16.688 7.15501 19.629 10.872 20.16C14.816 20.722 18.542 18.546 19.942 15.003C18.634 15.639 17.153 15.879 15.672 15.682C12.555 15.266 10.07 12.948 9.48801 9.91599C9.06201 7.68898 9.654 5.48101 11.085 3.81601ZM4.26999 7.42001H4.28H4.26999Z" fill="currentColor"/>
</svg>

<svg xmlns="http://www.w3.org/2000/svg" width="24" height="24" fill="none"><path fill="currentColor" d="M12.115 21.749c-.48 0-.965-.034-1.454-.104-4.389-.626-7.818-4.105-8.34-8.46a9.608 9.608 0 0 1 1.306-6.151C5.401 4.083 8.66 2.25 12.133 2.25c.471.001.871.279 1.03.708.161.433.038.908-.313 1.21-1.578 1.358-2.284 3.401-1.887 5.464.46 2.398 2.434 4.231 4.91 4.562 1.497.199 2.938-.136 4.159-.974a1.092 1.092 0 0 1 1.252.006c.376.263.545.72.432 1.163-1.123 4.39-5.111 7.359-9.601 7.36Zm-1.03-17.933c-2.549.321-4.85 1.789-6.173 3.991a8.128 8.128 0 0 0-1.102 5.199c.441 3.682 3.345 6.623 7.062 7.154 3.944.562 7.67-1.614 9.07-5.157a7.491 7.491 0 0 1-4.27.679c-3.117-.416-5.602-2.734-6.184-5.766-.426-2.227.166-4.435 1.597-6.1ZM4.27 7.42h.01-.01Z"/></svg>
